images/icons/icon-date-blue.svg

<svg fill="#006D81" xmlns="http://www.w3.org/2000/svg" viewBox="0 0 12 12" enable-background="new 0 0 12 12"><path d="M10.1 1.3H12V12H0V1.3h1.9V0h.4v1.3h7.3V0h.4v1.3zm1.5 1.3v-.9h-1.5v.4h-.5v-.4H2.4v.4h-.5v-.4H.4v.9h11.2zm0 9V3H.4v8.6h11.2z"/></svg>

<?xml version="1.0" encoding="utf-8"?>
<!-- Generator: Adobe Illustrator 18.1.1, SVG Export Plug-In . SVG Version: 6.00 Build 0)  -->
<svg version="1.1" id="Layer_1" fill="#006D81" xmlns="http://www.w3.org/2000/svg" xmlns:xlink="http://www.w3.org/1999/xlink" x="0px" y="0px"
	 viewBox="0 0 12 12" enable-background="new 0 0 12 12" xml:space="preserve">
<path d="M10.1,1.3H12V12H0V1.3h1.9V0h0.4v1.3h7.3V0h0.4V1.3z M11.6,2.6V1.7h-1.5v0.4H9.6V1.7H2.4v0.4H1.9V1.7H0.4v0.9H11.6z
	 M11.6,11.6V3H0.4v8.6H11.6z"/>
</svg>
